public/lowerFrame.svg

<?xml version="1.0" encoding="UTF-8" standalone="no"?>
<!-- Created with Inkscape (http://www.inkscape.org/) -->

<svg
   width="79.375mm"
   height="26.458334mm"
   viewBox="0 0 79.375 26.458334"
   version="1.1"
   id="svg5"
   xmlns="http://www.w3.org/2000/svg"
   xmlns:svg="http://www.w3.org/2000/svg">
  <defs
     id="defs2" />
  <g
     id="layer1"
     transform="translate(0,-92.604167)">
    <path
       id="rect111"
       style="fill:#000000;stroke-width:0.264583"
       d="m 0,92.604167 v 13.229163 6.61459 6.61458 h 79.375 v -6.61458 -6.61459 -13.229163 H 68.93016 c -4.051699,1.98e-4 -7.64724,2.596886 -8.92142,6.443017 -2.036967,3.032776 -8.294075,5.641826 -16.384013,6.786146 H 35.750273 C 27.660335,104.68901 21.403227,102.07996 19.36626,99.047184 18.09208,95.201053 14.496539,92.604365 10.44484,92.604167 Z" />
  </g>
</svg>

<!-- #2596be blue -->
<!-- #000000 black -->

<?xml version="1.0" encoding="UTF-8" standalone="no"?>
<!-- Created with Inkscape (http://www.inkscape.org/) -->

<svg
   width="210mm"
   height="297mm"
   viewBox="0 0 210 297"
   version="1.1"
   id="svg5"
   xmlns="http://www.w3.org/2000/svg"
   xmlns:svg="http://www.w3.org/2000/svg">
  <defs
     id="defs2" />
  <g
     id="layer1">
    <path
       id="rect111"
       style="fill:#2596be;stroke-width:0.264583"
       d="M 0 92.604167 L 0 105.83333 L 0 112.44792 L 0 119.0625 L 79.375 119.0625 L 79.375 112.44792 L 79.375 105.83333 L 79.375 92.604167 L 68.93016 92.604167 C 64.878461 92.604365 61.28292 95.201053 60.00874 99.047184 C 57.971773 102.07996 51.714665 104.68901 43.624727 105.83333 L 35.750273 105.83333 C 27.660335 104.68901 21.403227 102.07996 19.36626 99.047184 C 18.09208 95.201053 14.496539 92.604365 10.44484 92.604167 L 0 92.604167 z " />
  </g>
</svg>
